X:1
T:Beating Around the Bush
R:H
C:Bill Keith
S:From the playing of Greg Smith
M:4/4
L:1/8
Q:1/4=115
K:A
(3cd^d!|"A" e^de=f "D"^fagf|"A"e=dce "C#7"dcB=c^|"F#m"c=c^cf "C#7"d=fed|
"F#m"cBAc "A7" BA=G2|"D7" (3EFA d^f "D#dim"a=c'^d'=c'|"A"e'^c'ag "F#7"f2
(3f=fe|1"B7" ^d^
fa=c'2 'b a2 |"E7"b4 e'2:|2"B7"^d^fa=c' "E7"=de^gb|"A"a6||
 |ag!"A7"|=g^f=ga b=gea|"D"a^fe^f d2 (3f=fe|"B7" ^d^f^c'=c' b^gfg|"E"eB^
GB E2 (3e^d=d|"C#7" c=c^cd cBAG| "D"(3EFA df afed|"A" cBAc "E7"BAGB|"A"
A6:|
